img/arrow-80.svg

<svg fill="none" height="14" viewBox="0 0 16 14" width="16" xmlns="http://www.w3.org/2000/svg"><path d="m15.6447 7.59866c.3306-.33063.3306-.86669 0-1.19732l-5.3879-5.3879c-.33066-.330628-.86671-.330628-1.19734 0-.33063.33063-.33063.86668 0 1.19731l4.78924 4.78925-4.78924 4.7892c-.33063.3307-.33063.8667 0 1.1974.33063.3306.86668.3306 1.19734 0zm-14.14472-1.44529c-.46758 0-.846624.37905-.846624.84663s.379044.84663.846624.84663zm13.54602 0h-13.54602v1.69326h13.54602z" fill="#fff"/></svg>

<svg width="16" height="14" viewBox="0 0 16 14" fill="none" xmlns="http://www.w3.org/2000/svg">
<path d="M15.6447 7.59866C15.9753 7.26803 15.9753 6.73197 15.6447 6.40134L10.2568 1.01344C9.92614 0.682812 9.39009 0.682812 9.05946 1.01344C8.72883 1.34407 8.72883 1.88012 9.05946 2.21075L13.8487 7L9.05946 11.7892C8.72883 12.1199 8.72883 12.6559 9.05946 12.9866C9.39009 13.3172 9.92614 13.3172 10.2568 12.9866L15.6447 7.59866ZM1.49998 6.15337C1.0324 6.15337 0.653356 6.53242 0.653356 7C0.653356 7.46758 1.0324 7.84663 1.49998 7.84663V6.15337ZM15.046 6.15337L1.49998 6.15337V7.84663L15.046 7.84663V6.15337Z" fill="white"/>
</svg>
